X:1
T:The City Beyond
T:William James Kirkpatrick
T:The City Beyond
T:Public Domain
T:Public Domain
T:Public Domain
C:William James Kirkpatrick
Z:Public Domain
%%score ( 1 2 ) ( 3 4 )
L:1/8
M:6/8
K:C
V:1 treble 
V:2 treble 
V:3 bass 
V:4 bass 
V:1
 ([CE]/[DF]/) | [EG]>[EG][EG] [EG][Ec][CE] | [EG]3- [EG]2 [EG] | [DG][B,D][CE] [DF][FA][EG] | %4
w: 1.~We’ll *|sing of the sta- tutes di-|vine, * Whilst|pil- grims, lest here we des-|
w: 2.~How *|bless- èd as child- ren and|heirs * To|en- ter that man- sion a-|
w: 3.~And *|whe- ther we bear to that|land * Heart|sor- rows or mem- o- ries|
w: 4.~Be- *|fore they shall call He will|hear, * And|ere they cease speak- ing res-|
 [CE]3- [CE]2 [EG]/[EG]<[Ec][Ec]/[Ec] [Ec]2 [EG]/[EG]/ | [FA]>[FA][FA] [FA]2 [FB]/[Fc]/ | %6
w: pond; * But we’ll sing the new song Of the|an- gel- ic throng When we|
w: bove, * Where the souls of the blest Are for-|ev- er at rest, In the|
w: fond, * Shall their pur- pose be seen, With no|sha- dow be- tween, When we|
w: pond, * While the an- gels a- wait To throw|o- pen the gate Th- at|
 [^Fd]>[Fd][Fd] [Fd][FA][Fe] | [Gd]3- [Gd]2 [Ge]/[Fd]/ | [Ec]>[Ec][Ec] [Ec]2 [EG]/[EG]/ | %9
w: meet in the ci- ty be-|yond. * When we|both, you and I, Hav- ing|
w: bo- som of in- fi- nite|love! * When the|ran- somed of earth, Hav- ing|
w: meet in the ci- ty be-|yond. * When the|child- ren of grace, Hav- ing|
w: leads to the ci- ty be-|yond. * For the|num- ber- less host That shall|
 [FA]>[FA][FA] [Ac]2 [FA] | [EG]>[EG][EG] [FG]<[Fd][Fd] | [Ec]3- [Ec]2 ||"^Refrain" [Ec]/[Fd]/ | %13
w: passed thro’ the gate, Shall|meet in the ci- ty be-|yond. *||
w: passed thro’ the gate, Shall|meet in the ci- ty a-|bove. *|When we|
w: passed thro’ the gate, Shall|meet in the ci- ty be-|yond. *||
w: sweep thro’ the gate, That|leads to the ci- ty be-|yond. *||
 [Ge]4 [EG][Ec] | [Ge]4 [Fd][Ec] | [Fd]4 [Ec][Fd] | [Ge]3- [Ge]2 [Ge]/[Fd]/ | %17
w: ||||
w: meet in the|beau- ti- ful|ci- ty be-|yond, * We will|
w: ||||
w: ||||
 [Ec]>[Ec][Ec] [Ec]2 [EG]/[EG]/ | [FA]>[FA][FA] [Ac]2 [FA]/[FA]/ | [EG]>[EG][EG] [FG]<[Fd](F/F/) | %20
w: |||
w: sing the new song Of the|an- gel- ic throng In the|beau- ti- ful ci- ty be- *|
w: |||
w: |||
 (E<EF [Ec]2) |] %21
w: |
w: |
w: |
w: |
V:2
 x | x6 | x6 | x6 | x12 | x6 | x6 | x6 | x6 | x6 | x6 | x5 || x | x6 | x6 | x6 | x6 | x6 | x6 | %19
w: |||||||||||||||||||
w: |||||||||||||||||||
 x5 d | c3- x2 |] %21
w: ||
w: yond.||
V:3
 [C,G,] | [C,C]>[C,C][C,C] [C,C][C,G,][C,G,] | [C,C]3- [C,C]2 [C,C] | %3
w: ~|~ ~ ~ ~ ~ ~|~ * ~|
 [G,,B,][G,,G,][G,,G,] [G,,G,][G,,G,][G,,G,] | %4
w: ~ ~ ~ ~ ~ ~|
 [C,G,]3- [C,G,]2 [C,C]/[C,C]<[C,G,][C,G,]/[C,G,] [C,G,]2 [C,C]/[C,C]/ | %5
w: ~ * ~ ~ ~ ~ ~ ~ ~ ~|
 [F,C]>[F,C][F,C] [F,C]2 [F,A,]/[F,A,]/ | [D,A,]>[D,A,][D,A,] [D,C][D,C][D,C] | %7
w: ~ ~ ~ ~ ~ ~|~ ~ ~ ~ ~ ~|
 [G,B,]3- [G,B,]2 [G,B,]/[G,B,]/ | [C,C]>[C,G,][C,G,] [C,G,]2 [C,C]/[C,C]/ | %9
w: ~ * ~ ~|~ ~ ~ ~ ~ ~|
 [F,C]>[F,C][F,C] [F,C]2 [F,C] | [G,C]>[G,C][G,C] [G,B,]<[G,B,][G,B,] | [C,G,]3- [C,G,]2 || %12
w: ~ ~ ~ ~ ~|~ ~ ~ ~ ~ ~|~ *|
 [C,G,]/[C,G,]/ | [C,C]>[C,C][C,C] [C,C][C,C][C,C] | [C,C]>[C,C][C,C] [C,C][C,G,][C,G,] | %15
w: When we|meet in the ci- ty, the|beau- ti- ful ci- ty, The|
 [G,B,]>[G,B,][G,B,] [G,B,][G,C][G,B,] | [C,C]2 [C,C] [C,C]2 [C,C]/[C,G,]/ | %17
w: beau- ti- ful ci- ty be-|yond, be- yond, ~ ~|
 [C,G,]>[C,G,][C,G,] [C,G,]2 [C,C]/[C,C]/ | [F,C]>[F,C][F,C] [F,C]2 [F,C]/[F,C]/ | %19
w: ~ ~ ~ ~ ~ ~|~ ~ ~ ~ ~ ~|
 [G,C]>[G,C][G,C] [G,B,]<[G,B,]B,/B,/ | C<G,A, [C,G,]2 |] %21
w: ~ ~ ~ ~ ~ in the|ty be- yond. *|
V:4
 x | x6 | x6 | x6 | x12 | x6 | x6 | x6 | x6 | x6 | x6 | x5 || x | x6 | x6 | x6 | x6 | x6 | x6 | %19
w: |||||||||||||||||||
 x5 G, | C,3- x2 |] %21
w: ci-||

